packages/devextreme-scss/images/icons/material/today.svg

<!-- Generated by IcoMoon.io -->
<svg version="1.1" xmlns="http://www.w3.org/2000/svg" width="24" height="24" viewBox="0 0 24 24">
<path d="M9 10h6v6h-6v-6zM13 12h-2v2h2v-2z"></path>
<path d="M16 3v-2h2v2h1c1.1 0 2 0.9 2 2v14c0 1.1-0.9 2-2 2h-14c-1.11 0-2-0.9-2-2l0.010-14c0-1.1 0.88-2 1.99-2h1v-2h2v2h8zM5 19h14v-11h-14v11z"></path>
</svg>

<svg width="24" height="24" viewBox="0 0 24 24" xmlns="http://www.w3.org/2000/svg">
<title>today</title>
<path d="M9 10H15V16H9V10ZM13 12H11V14H13V12Z"></path>
<path d="M16 3V1H18V3H19C20.1 3 21 3.9 21 5V19C21 20.1 20.1 21 19 21H5C3.89 21 3 20.1 3 19L3.01 5C3.01 3.9 3.89 3 5 3H6V1H8V3H16ZM5 19H19V8H5V19Z"></path>
</svg>
